images/country-icon-3.svg

<svg width="19" height="20" viewBox="0 0 19 20" fill="none" xmlns="http://www.w3.org/2000/svg">
<path d="M18.2578 8.45625C17.5453 4.27031 13.8938 1.09375 9.5 1.09375C5.10625 1.09375 1.45469 4.27031 0.742188 8.45625L9.5 4.0625L18.2578 8.45625ZM0.742188 11.5437C1.45469 15.7297 5.10625 18.9062 9.5 18.9062C13.8938 18.9062 17.5453 15.7297 18.2578 11.5437L9.5 15.9375L0.742188 11.5437Z" fill="#699635"/>
<path d="M9.5 4.0625L0.742188 8.45625C0.653125 8.96094 0.59375 9.46562 0.59375 10C0.59375 10.5344 0.653125 11.0391 0.742188 11.5438L9.5 15.9375L18.2578 11.5438C18.3469 11.0391 18.4062 10.5344 18.4062 10C18.4062 9.46562 18.3469 8.96094 18.2578 8.45625L9.5 4.0625Z" fill="#FFE62E"/>
<path d="M7.71875 8.93164C6.76875 8.93164 5.87813 9.13945 5.07656 9.4957C5.04688 9.67383 5.04688 9.82227 5.04688 10.0004C5.04688 12.4645 7.03594 14.4535 9.5 14.4535C11.1625 14.4535 12.6172 13.5332 13.3891 12.1973C12.2906 10.2676 10.1531 8.93164 7.71875 8.93164Z" fill="#02F7EA"/>
<path d="M13.8938 10.7125C13.9234 10.475 13.9531 10.2375 13.9531 10C13.9531 7.53594 11.9641 5.54688 9.5 5.54688C7.74844 5.54688 6.23438 6.55625 5.49219 8.04062C6.20469 7.83281 6.94687 7.71406 7.71875 7.71406C10.2422 7.71406 12.4687 8.90156 13.8938 10.7125Z" fill="#02F7EA"/>
<path d="M7.71836 7.71484C6.94648 7.71484 6.2043 7.83359 5.4918 8.04141C5.28398 8.48672 5.13555 8.96172 5.07617 9.49609C5.87773 9.13984 6.76836 8.93203 7.71836 8.93203C10.1527 8.93203 12.2902 10.2383 13.3887 12.168C13.6559 11.7227 13.8043 11.218 13.8934 10.7133C12.4684 8.90234 10.2418 7.71484 7.71836 7.71484Z" fill="black"/>
<path d="M6.53125 10.2969C6.69521 10.2969 6.82812 10.164 6.82812 10C6.82812 9.83604 6.69521 9.70312 6.53125 9.70312C6.36729 9.70312 6.23438 9.83604 6.23438 10C6.23438 10.164 6.36729 10.2969 6.53125 10.2969Z" fill="black"/>
<path d="M7.71875 12.0781C7.88271 12.0781 8.01562 11.9452 8.01562 11.7812C8.01562 11.6173 7.88271 11.4844 7.71875 11.4844C7.55479 11.4844 7.42188 11.6173 7.42188 11.7812C7.42188 11.9452 7.55479 12.0781 7.71875 12.0781Z" fill="black"/>
<path d="M9.5 12.0781C9.66396 12.0781 9.79688 11.9452 9.79688 11.7812C9.79688 11.6173 9.66396 11.4844 9.5 11.4844C9.33604 11.4844 9.20312 11.6173 9.20312 11.7812C9.20312 11.9452 9.33604 12.0781 9.5 12.0781Z" fill="black"/>
<path d="M9.5 13.2656C9.66396 13.2656 9.79688 13.1327 9.79688 12.9688C9.79688 12.8048 9.66396 12.6719 9.5 12.6719C9.33604 12.6719 9.20312 12.8048 9.20312 12.9688C9.20312 13.1327 9.33604 13.2656 9.5 13.2656Z" fill="black"/>
<path d="M11.875 12.0781C12.039 12.0781 12.1719 11.9452 12.1719 11.7812C12.1719 11.6173 12.039 11.4844 11.875 11.4844C11.711 11.4844 11.5781 11.6173 11.5781 11.7812C11.5781 11.9452 11.711 12.0781 11.875 12.0781Z" fill="black"/>
<path d="M11.875 13.2656C12.039 13.2656 12.1719 13.1327 12.1719 12.9688C12.1719 12.8048 12.039 12.6719 11.875 12.6719C11.711 12.6719 11.5781 12.8048 11.5781 12.9688C11.5781 13.1327 11.711 13.2656 11.875 13.2656Z" fill="black"/>
<path d="M10.6875 12.6719C10.8515 12.6719 10.9844 12.539 10.9844 12.375C10.9844 12.211 10.8515 12.0781 10.6875 12.0781C10.5235 12.0781 10.3906 12.211 10.3906 12.375C10.3906 12.539 10.5235 12.6719 10.6875 12.6719Z" fill="black"/>
<path d="M6.53125 11.4844C6.69521 11.4844 6.82812 11.3515 6.82812 11.1875C6.82812 11.0235 6.69521 10.8906 6.53125 10.8906C6.36729 10.8906 6.23438 11.0235 6.23438 11.1875C6.23438 11.3515 6.36729 11.4844 6.53125 11.4844Z" fill="black"/>
</svg>

<svg width="19" height="20" fill="none" xmlns="http://www.w3.org/2000/svg"><path d="M18.258 8.456A8.874 8.874 0 009.5 1.094 8.874 8.874 0 00.742 8.456L9.5 4.063l8.758 4.393zM.742 11.544A8.874 8.874 0 009.5 18.906a8.874 8.874 0 008.758-7.362L9.5 15.937.742 11.544z" fill="#699635"/><path d="M9.5 4.063L.742 8.456A8.779 8.779 0 00.594 10c0 .534.06 1.04.148 1.544L9.5 15.937l8.758-4.393c.089-.505.148-1.01.148-1.544s-.06-1.04-.148-1.544L9.5 4.063z" fill="#FFE62E"/><path d="M7.719 8.932c-.95 0-1.84.207-2.642.564-.03.178-.03.326-.03.504A4.447 4.447 0 009.5 14.454c1.662 0 3.117-.92 3.89-2.257-1.1-1.93-3.237-3.265-5.671-3.265z" fill="#02F7EA"/><path d="M13.894 10.713c.03-.238.06-.475.06-.713A4.447 4.447 0 009.5 5.547 4.477 4.477 0 005.492 8.04a7.84 7.84 0 018.402 2.672z" fill="#02F7EA"/><path d="M7.718 7.715c-.772 0-1.514.119-2.226.326-.208.446-.356.92-.416 1.455a6.482 6.482 0 012.642-.564c2.435 0 4.572 1.306 5.67 3.236.268-.445.416-.95.505-1.455a7.84 7.84 0 00-6.175-2.998z" fill="#000"/><path d="M6.531 10.297a.297.297 0 100-.594.297.297 0 000 .594zm1.188 1.781a.297.297 0 100-.594.297.297 0 000 .594zm1.781 0a.297.297 0 100-.594.297.297 0 000 .594zm0 1.188a.297.297 0 100-.594.297.297 0 000 .594zm2.375-1.188a.297.297 0 100-.594.297.297 0 000 .594zm0 1.188a.297.297 0 100-.594.297.297 0 000 .594zm-1.187-.594a.297.297 0 100-.594.297.297 0 000 .594zm-4.157-1.188a.297.297 0 100-.593.297.297 0 000 .593z" fill="#000"/></svg>
